X: 17
T: MEDLEY: Road to Lisdoonvarna Set
T: Road to Lisdoonvarna [Slide]
C: C: Trad.; S: Various
C: Set Leaders: Olya, Andrey
Z: [Unedited]; birlibirdie / fidicen / NfldWhistler at The Session
N: https://thesession.org/members/26966/sets/92387      
R: Slide
M: 12/8
L: 1/8
Q: 3/8=130
K: Edor
E2B B2A B2c d2A|F2A ABA D2E FED|
E2B B2A B2c d3|cdc B2A B2E E3:||
e2f gfe d2B Bcd|c2A ABc d2B B3|
e2f gfe d2B Bcd|cdc B2A B2E E3:||
T: Swallowtail [Jig]
R: Jig
M: 6/8
K: Edor
|:GEE BEE|GEE BAG|FDD ADD|dcd AGF|
GEE BEE|GEG B2c|dcd AGF|GEE E3:||
|:Bcd e2f|e2f edB|Bcd e2f|edB d3|
Bcd e2f|e2f edB|dcd AGF|GEE E3:||
T: Tripping up the Stairs [Jig]
R: Jig
M: 6/8
K: Dmaj
|:FAA GBB|FAd fed|cBc ABc|dfe dAG|
FAA GBB|FAd fed|cBc ABc|1 dfe d2A:|2 dfe d2c||
|:dBB fBB|fgf fed|cAA eAA|efe edc|
dBB fBB|fgf fed|cBc ABc|1 dfe d2c:|2 dfe d2A||

